/* XPM */
static char * close_prelight_xpm[] = {
"24 26 4 1",
" 	c None",
".	c #061115",
"+	c #d9d7d6",
"@	c #061115",
"@@@@@@@@@@@@@@@@@@@@@@@@",
"........................",
"........................",
"........................",
"........................",
"........................",
"........................",
"........................",
"........................",
"........++....++........",
"........+++..+++........",
".........++++++.........",
"..........++++..........",
"..........++++..........",
".........++++++.........",
"........+++..+++........",
"........++....++........",
"........................",
"........................",
"........................",
"........................",
"........................",
"........................",
"........................",
"........................",
"........................"};
